; generated by PrusaSlicer 2.2.0+win64 on 2020-10-23 at 18:00:32 UTC

; 

; external perimeters extrusion width = 0.68mm
; perimeters extrusion width = 0.68mm
; infill extrusion width = 0.68mm
; solid infill extrusion width = 0.68mm
; top infill extrusion width = 0.60mm
; first layer extrusion width = 0.65mm

M73 P0 R69
M73 Q0 S70
M201 X1000 Y1000 Z200 E5000 ; sets maximum accelerations, mm/sec^2
M203 X200 Y200 Z12 E120 ; sets maximum feedrates, mm/sec
M204 P1250 R1250 T1250 ; sets acceleration (P, T) and retract acceleration (R), mm/sec^2
M205 X8.00 Y8.00 Z0.40 E4.50 ; sets the jerk limits, mm/sec
M205 S0 T0 ; sets the minimum extruding and travel feed rate, mm/sec
M107
M862.3 P "MK3S" ; printer model check
M862.1 P0.6 ; nozzle diameter check
M115 U3.9.1 ; tell printer latest fw version
G90 ; use absolute coordinates
M83 ; extruder relative mode
M104 S215 ; set extruder temp
M140 S60 ; set bed temp
M190 S60 ; wait for bed temp
M109 S215 ; wait for extruder temp
G28 W ; home all without mesh bed level
G80 ; mesh bed leveling
G1 Y-3.0 F1000.0 ; go outside print area
G92 E0.0
G1 X60.0 E9.0 F1000.0 ; intro line
M73 Q0 S70
M73 P0 R69
G1 X100.0 E12.5 F1000.0 ; intro line
G92 E0.0
M221 S95
G21 ; set units to millimeters
G90 ; use absolute coordinates
M83 ; use relative distances for extrusion
M900 K0.04 ; Filament gcode LA 1.5
M900 K18 ; Filament gcode LA 1.0
;BEFORE_LAYER_CHANGE
G92 E0.0
;0.2


G1 E-0.80000 F2100.00000
G1 Z0.600 F10800.000
;AFTER_LAYER_CHANGE
;0.2
G1 X114.332 Y44.211
G1 Z0.200
G1 E0.80000 F2100.00000
M204 S1000
G1 F1200.000
G1 X115.168 Y43.818 E0.04667
G1 X132.142 Y39.920 E0.87911
G1 X141.408 Y39.879 E0.46776
G1 X142.132 Y39.983 E0.03693
G1 X142.799 Y40.284 E0.03693
G1 X143.356 Y40.758 E0.03693
G1 X143.761 Y41.372 E0.03713
G1 X162.334 Y84.093 E2.35147
G1 X162.494 Y84.643 E0.02894
G1 X164.227 Y94.920 E0.52609
G1 X164.488 Y127.575 E1.64844
G1 X152.875 Y167.855 E2.11609
G1 X152.403 Y168.691 E0.04845
G1 X151.441 Y169.563 E0.06558
G1 X150.763 Y169.948 E0.03932
G1 X150.003 Y170.115 E0.03932
G1 X142.065 Y170.114 E0.40066
G1 X120.877 Y168.442 E1.07290
G1 X120.195 Y168.283 E0.03533
G1 X119.584 Y167.950 E0.03513
G1 X118.506 Y166.967 E0.07366
G1 X86.955 Y126.858 E2.57599
G1 X86.346 Y125.900 E0.05730
G1 X85.894 Y124.885 E0.05610
G1 X85.593 Y123.803 E0.05670
G1 X85.457 Y122.728 E0.05469
G1 X85.455 Y99.942 E1.15023
G1 X87.164 Y85.004 E0.75897
G1 X87.301 Y84.423 E0.03014
G1 X87.583 Y83.865 E0.03154
G1 X113.683 Y44.876 E2.36841
G1 X114.269 Y44.276 E0.04232
G1 F8640.000
G1 X115.168 Y43.818 E-0.23306
G1 X117.392 Y43.307 E-0.52694
G1 E-0.04000 F2100.00000
G1 Z0.800 F10800.000
G1 X124.916 Y147.014
G1 Z0.200
G1 E0.80000 F2100.00000
G1 F1200.000
G1 X127.281 Y149.379 E0.16886
G1 X127.361 Y149.379 E0.00401
G1 X127.363 Y164.314 E0.75386
G1 X122.471 Y164.315 E0.24693
G1 X122.469 Y149.379 E0.75397
G1 X122.552 Y149.378 E0.00416
G1 X124.852 Y147.078 E0.16424
G1 X124.341 Y146.730 F10800.000
G1 F1200.000
G1 X124.341 Y130.772 E0.80555
G1 X125.491 Y130.772 E0.05805
G1 X125.491 Y146.730 E0.80555
G1 X127.533 Y148.772 E0.14576
G1 X127.970 Y148.774 E0.02207
G1 X127.968 Y164.922 E0.81514
G1 X121.862 Y164.920 E0.30822
G1 X121.862 Y148.774 E0.81505
G1 X122.299 Y148.772 E0.02207
G1 X124.277 Y146.794 E0.14122
G1 X124.925 Y146.594 F10800.000
G1 X124.916 Y146.313
G1 F1200.000
G1 X124.916 Y131.076 E0.68788
G1 F8640.000
G1 X124.916 Y134.367 E-0.76000
G1 E-0.04000 F2100.00000
G1 Z0.800 F10800.000
G1 X127.179 Y149.928
G1 Z0.200
G1 E0.80000 F2100.00000
G1 F1200.000
G1 X124.912 Y147.662 E0.16473
G1 X124.475 Y148.099 E0.03176
G1 X126.906 Y150.529 E0.17664
G1 X126.906 Y151.403 E0.04492
G1 X124.038 Y148.536 E0.20840
G1 X123.601 Y148.973 E0.03176
G1 X126.906 Y152.278 E0.24017
G1 X126.906 Y153.152 E0.04492
G1 X123.164 Y149.410 E0.27193
G1 X122.925 Y149.649 E0.01741
G1 X122.925 Y150.044 E0.02029
G1 X126.906 Y154.026 E0.28935
G1 X126.906 Y154.900 E0.04492
G1 X122.925 Y150.918 E0.28935
G1 X122.925 Y151.792 E0.04492
G1 X126.906 Y155.774 E0.28935
G1 X126.907 Y156.648 E0.04492
G1 X122.925 Y152.666 E0.28935
G1 X122.925 Y153.541 E0.04492
G1 X126.907 Y157.522 E0.28935
G1 X126.907 Y158.396 E0.04492
G1 X122.925 Y154.415 E0.28935
G1 X122.925 Y155.289 E0.04492
G1 X126.907 Y159.270 E0.28935
G1 X126.907 Y160.144 E0.04492
G1 X122.925 Y156.163 E0.28935
G1 X122.926 Y157.037 E0.04492
G1 X126.907 Y161.019 E0.28935
G1 X126.907 Y161.893 E0.04492
G1 X122.926 Y157.911 E0.28935
G1 X122.926 Y158.785 E0.04492
G1 X126.907 Y162.767 E0.28935
G1 X126.907 Y163.641 E0.04492
G1 X122.926 Y159.659 E0.28935
G1 X122.926 Y160.533 E0.04492
G1 X126.251 Y163.859 E0.24165
G1 X125.377 Y163.859 E0.04490
G1 X122.926 Y161.408 E0.17815
G1 X122.926 Y162.282 E0.04492
G1 X124.504 Y163.859 E0.11464
G1 X123.630 Y163.859 E0.04490
G1 X122.653 Y162.882 E0.07099
G1 F8640.000
G1 X123.630 Y163.859 E-0.31900
G1 X124.504 Y163.859 E-0.20175
G1 X123.771 Y163.126 E-0.23925
G1 E-0.04000 F2100.00000
G1 Z0.800 F10800.000
G1 X143.594 Y165.982
G1 Z0.200
G1 E0.80000 F2100.00000
G1 F1200.000
G1 X143.592 Y151.045 E0.75397
G1 X143.675 Y151.045 E0.00416
G1 X146.039 Y148.681 E0.16878
G1 X148.405 Y151.046 E0.16886
G1 X148.484 Y151.046 E0.00401
G1 X148.486 Y165.980 E0.75386
G1 X143.684 Y165.982 E0.24238
G1 X142.987 Y166.589 F10800.000
G1 F1200.000
G1 X142.985 Y150.441 E0.81514
G1 X143.422 Y150.439 E0.02207
G1 X145.464 Y148.397 E0.14576
G1 X145.464 Y132.439 E0.80555
G1 X146.614 Y132.439 E0.05805
G1 X146.614 Y148.397 E0.80555
G1 X148.656 Y150.439 E0.14576
G1 X149.093 Y150.441 E0.02207
G1 X149.093 Y166.587 E0.81505
G1 X143.077 Y166.589 E0.30367
G1 X143.059 Y165.993 F10800.000
G1 F8640.000
G1 X143.059 Y163.297 E-0.76000
G1 E-0.04000 F2100.00000
G1 Z0.800 F10800.000
G1 X143.776 Y164.549
G1 Z0.200
G1 E0.80000 F2100.00000
G1 F1200.000
G1 X144.753 Y165.526 E0.07099
G1 X145.627 Y165.526 E0.04490
G1 X144.049 Y163.948 E0.11464
G1 X144.049 Y163.074 E0.04492
G1 X146.501 Y165.525 E0.17815
G1 X147.374 Y165.525 E0.04490
G1 X144.049 Y162.200 E0.24165
G1 X144.049 Y161.326 E0.04492
G1 X148.031 Y165.307 E0.28935
G1 X148.030 Y164.433 E0.04492
G1 X144.049 Y160.452 E0.28935
G1 X144.049 Y159.578 E0.04492
G1 X148.030 Y163.559 E0.28935
G1 X148.030 Y162.685 E0.04492
G1 X144.049 Y158.704 E0.28935
G1 X144.049 Y157.829 E0.04492
G1 X148.030 Y161.811 E0.28935
G1 X148.030 Y160.937 E0.04492
G1 X144.048 Y156.955 E0.28935
G1 X144.048 Y156.081 E0.04492
G1 X148.030 Y160.063 E0.28935
G1 X148.030 Y159.189 E0.04492
G1 X144.048 Y155.207 E0.28935
G1 X144.048 Y154.333 E0.04492
G1 X148.030 Y158.315 E0.28935
G1 X148.030 Y157.441 E0.04492
G1 X144.048 Y153.459 E0.28935
G1 X144.048 Y152.585 E0.04492
G1 X148.029 Y156.566 E0.28935
G1 X148.029 Y155.692 E0.04492
G1 X144.048 Y151.711 E0.28935
G1 X144.048 Y151.316 E0.02029
G1 X144.287 Y151.076 E0.01741
G1 X148.029 Y154.818 E0.27193
G1 X148.029 Y153.944 E0.04492
G1 X144.724 Y150.639 E0.24017
G1 X145.161 Y150.202 E0.03176
G1 X148.029 Y153.070 E0.20840
G1 X148.029 Y152.196 E0.04492
G1 X145.598 Y149.765 E0.17664
G1 X146.035 Y149.328 E0.03176
G1 X148.302 Y151.595 E0.16473
G1 F8640.000
G1 X146.035 Y149.328 E-0.74018
G1 X145.975 Y149.389 E-0.01982
G1 E-0.04000 F2100.00000
G1 Z0.800 F10800.000
G1 X146.039 Y147.980
G1 Z0.200
G1 E0.80000 F2100.00000
G1 F1200.000
G1 X146.039 Y132.742 E0.68788
G1 F8640.000
G1 X146.039 Y136.034 E-0.76000
G1 E-0.04000 F2100.00000
G1 Z0.800 F10800.000
G1 X157.757 Y98.959
G1 Z0.200
G1 E0.80000 F2100.00000
G1 F1200.000
G1 X153.294 Y98.959 E0.22531
G1 X153.294 Y125.624 E1.34598
G1 X160.501 Y125.624 E0.36383
G1 X160.615 Y125.959 E0.01790
G1 X154.451 Y125.959 E0.31116
G1 X154.058 Y125.940 E0.01986
G1 X153.487 Y125.841 E0.02928
G1 X152.936 Y125.659 E0.02929
G1 X152.613 Y125.507 E0.01800
G1 X152.114 Y125.190 E0.02987
G1 X151.829 Y124.957 E0.01858
G1 X151.569 Y124.696 E0.01858
G1 X151.205 Y124.230 E0.02987
G1 X151.016 Y123.914 E0.01858
G1 X150.853 Y123.571 E0.01915
G1 X150.726 Y123.214 E0.01915
G1 X150.633 Y122.846 E0.01915
G1 X150.578 Y122.471 E0.01915
G1 X150.558 Y122.066 E0.02044
G1 X150.558 Y100.117 E1.10798
G1 X150.577 Y99.724 E0.01986
G1 X150.676 Y99.152 E0.02928
G1 X150.855 Y98.612 E0.02871
G1 X151.110 Y98.104 E0.02871
G1 X151.438 Y97.639 E0.02871
G1 X151.830 Y97.228 E0.02871
G1 X152.287 Y96.871 E0.02929
G1 X152.603 Y96.681 E0.01858
G1 X152.936 Y96.524 E0.01858
G1 X153.498 Y96.338 E0.02987
G1 X153.858 Y96.267 E0.01858
G1 X154.236 Y96.229 E0.01917
G1 X160.494 Y96.224 E0.31586
G1 X160.494 Y111.787 E0.78556
G1 X159.963 Y111.582 E0.02874
G1 X159.648 Y111.414 E0.01800
G1 X159.174 Y111.079 E0.02929
G1 X158.753 Y110.679 E0.02929
G1 X158.527 Y110.404 E0.01800
G1 X158.211 Y109.904 E0.02987
G1 X158.058 Y109.582 E0.01800
G1 X157.873 Y109.020 E0.02987
G1 X157.801 Y108.659 E0.01858
G1 X157.764 Y108.281 E0.01917
G1 X157.757 Y99.049 E0.46600
G1 X157.151 Y99.567 F10800.000
G1 F1200.000
G1 X153.901 Y99.567 E0.16404
G1 X153.901 Y125.017 E1.28469
G1 X160.881 Y125.017 E0.35233
G1 X161.059 Y125.379 E0.02042
G1 X161.248 Y125.933 E0.02954
G1 X161.367 Y126.567 E0.03252
G1 X154.436 Y126.567 E0.34984
G1 X153.991 Y126.545 E0.02249
G1 X153.339 Y126.432 E0.03343
G1 X152.710 Y126.224 E0.03343
G1 X152.320 Y126.039 E0.02176
G1 X151.757 Y125.683 E0.03363
G1 X151.421 Y125.407 E0.02196
G1 X151.113 Y125.099 E0.02196
G1 X150.703 Y124.574 E0.03363
G1 X150.480 Y124.201 E0.02196
G1 X150.292 Y123.804 E0.02216
G1 X150.144 Y123.390 E0.02217
G1 X150.037 Y122.964 E0.02217
G1 X149.973 Y122.530 E0.02216
G1 X149.951 Y122.081 E0.02269
G1 X149.951 Y100.102 E1.10948
M73 Q1 S69
G1 X149.973 Y99.657 E0.02249
G1 X150.086 Y99.004 E0.03343
G1 X150.292 Y98.379 E0.03323
G1 X150.588 Y97.791 E0.03323
G1 X150.967 Y97.253 E0.03323
G1 X151.421 Y96.776 E0.03323
G1 X151.943 Y96.369 E0.03343
G1 X152.317 Y96.145 E0.02196
G1 X152.710 Y95.959 E0.02196
G1 X153.343 Y95.750 E0.03363
G1 X153.769 Y95.665 E0.02196
G1 X154.206 Y95.622 E0.02217
G1 X161.101 Y95.617 E0.34802
M73 P1 R68
G1 X161.101 Y112.530 E0.85375
G1 X160.972 Y112.518 E0.00651
G1 X160.327 Y112.373 E0.03338
G1 X159.709 Y112.135 E0.03344
G1 X159.329 Y111.931 E0.02177
G1 X158.787 Y111.550 E0.03343
G1 X158.308 Y111.093 E0.03343
G1 X158.034 Y110.760 E0.02176
G1 X157.678 Y110.197 E0.03363
G1 X157.494 Y109.807 E0.02176
G1 X157.285 Y109.175 E0.03363
G1 X157.200 Y108.748 E0.02196
G1 X157.157 Y108.311 E0.02217
G1 X157.151 Y99.657 E0.43687
G1 X157.150 Y98.967 F10800.000
G1 F8640.000
G1 X153.901 Y99.567 E-0.75068
G1 X153.901 Y99.607 E-0.00932
G1 E-0.04000 F2100.00000
G1 Z0.800 F10800.000
G1 X157.914 Y98.777
G1 Z0.200
G1 E0.80000 F2100.00000
G1 F1200.000
G1 X155.820 Y96.683 E0.15288
G1 X154.942 Y96.684 E0.04529
G1 X156.762 Y98.504 E0.13288
G1 X155.884 Y98.504 E0.04533
G1 X154.082 Y96.702 E0.13157
G1 X153.614 Y96.780 E0.02452
G1 X153.364 Y96.862 E0.01357
G1 X155.006 Y98.504 E0.11990
G1 X154.128 Y98.504 E0.04533
G1 X152.749 Y97.125 E0.10071
G1 X152.545 Y97.247 E0.01224
G1 X152.235 Y97.489 E0.02033
G1 X153.250 Y98.504 E0.07412
G1 X152.838 Y98.504 E0.02126
G1 X152.838 Y98.970 E0.02407
G1 X151.794 Y97.926 E0.07627
G1 X151.502 Y98.339 E0.02612
G1 X151.444 Y98.454 E0.00665
G1 X152.838 Y99.849 E0.10181
G1 X152.838 Y100.727 E0.04533
G1 X151.183 Y99.071 E0.12089
G1 X151.119 Y99.263 E0.01046
G1 X151.029 Y99.796 E0.02788
G1 X152.838 Y101.605 E0.13208
G1 X152.838 Y102.483 E0.04533
G1 X151.013 Y100.657 E0.13326
G1 X151.013 Y101.536 E0.04533
G1 X152.838 Y103.361 E0.13326
G1 X152.838 Y104.239 E0.04533
G1 X151.013 Y102.414 E0.13326
G1 X151.013 Y103.292 E0.04533
G1 X152.838 Y105.117 E0.13326
G1 X152.838 Y105.995 E0.04533
G1 X151.013 Y104.170 E0.13326
G1 X151.013 Y105.048 E0.04533
G1 X152.838 Y106.873 E0.13326
G1 X152.838 Y107.751 E0.04533
G1 X151.013 Y105.926 E0.13326
G1 X151.013 Y106.804 E0.04533
G1 X152.838 Y108.629 E0.13326
G1 X152.838 Y109.507 E0.04533
G1 X151.013 Y107.682 E0.13326
G1 X151.013 Y108.560 E0.04533
G1 X152.838 Y110.385 E0.13326
G1 X152.838 Y111.263 E0.04533
G1 X151.013 Y109.438 E0.13326
G1 X151.013 Y110.316 E0.04533
G1 X152.838 Y112.141 E0.13326
G1 X152.838 Y113.020 E0.04533
G1 X151.013 Y111.194 E0.13326
G1 X151.013 Y112.072 E0.04533
G1 X152.838 Y113.898 E0.13326
G1 X152.838 Y114.776 E0.04533
G1 X151.013 Y112.950 E0.13326
G1 X151.013 Y113.828 E0.04533
G1 X152.838 Y115.654 E0.13326
G1 X152.838 Y116.532 E0.04533
G1 X151.013 Y114.706 E0.13326
G1 X151.013 Y115.585 E0.04533
G1 X152.838 Y117.410 E0.13326
G1 X152.838 Y118.288 E0.04533
G1 X151.013 Y116.463 E0.13326
G1 X151.013 Y117.341 E0.04533
G1 X152.838 Y119.166 E0.13326
G1 X152.838 Y120.044 E0.04533
G1 X151.013 Y118.219 E0.13326
G1 X151.013 Y119.097 E0.04533
G1 X152.838 Y120.922 E0.13326
G1 X152.838 Y121.800 E0.04533
G1 X151.013 Y119.975 E0.13326
G1 X151.013 Y120.853 E0.04533
G1 X152.838 Y122.678 E0.13326
G1 X152.838 Y123.556 E0.04533
G1 X151.013 Y121.731 E0.13326
G1 X151.031 Y122.426 E0.03589
G1 X151.066 Y122.662 E0.01233
G1 X152.838 Y124.434 E0.12938
G1 X152.838 Y125.109 E0.03485
G1 X152.381 Y124.820 E0.02795
G1 X152.189 Y124.663 E0.01278
G1 X151.019 Y123.493 E0.08548
G1 F8640.000
G1 X152.189 Y124.663 E-0.38231
G1 X152.381 Y124.820 E-0.05714
G1 X152.838 Y125.109 E-0.12499
G1 X152.838 Y124.434 E-0.15588
G1 X152.717 Y124.313 E-0.03968
G1 E-0.04000 F2100.00000
G1 Z0.800 F10800.000
G1 X160.312 Y110.834
G1 Z0.200
G1 E0.80000 F2100.00000
G1 F1200.000
G1 X158.297 Y108.819 E0.14709
G1 X158.252 Y108.592 E0.01197
G1 X158.219 Y108.258 E0.01731
G1 X158.219 Y107.863 E0.02041
G1 X160.038 Y109.683 E0.13286
G1 X160.038 Y108.805 E0.04533
G1 X158.218 Y106.984 E0.13291
G1 X158.217 Y106.106 E0.04536
G1 X160.038 Y107.927 E0.13295
G1 X160.038 Y107.049 E0.04533
G1 X158.217 Y105.227 E0.13299
G1 X158.216 Y104.348 E0.04536
G1 X160.038 Y106.170 E0.13304
G1 X160.038 Y105.292 E0.04533
G1 X158.216 Y103.470 E0.13308
G1 X158.215 Y102.591 E0.04536
G1 X160.038 Y104.414 E0.13313
G1 X160.038 Y103.536 E0.04533
G1 X158.214 Y101.712 E0.13317
G1 X158.214 Y100.834 E0.04536
G1 X160.038 Y102.658 E0.13322
G1 X160.038 Y101.780 E0.04533
G1 X158.213 Y99.955 E0.13326
G1 X158.213 Y99.076 E0.04536
G1 X160.038 Y100.902 E0.13331
G1 X160.038 Y100.024 E0.04533
G1 X156.697 Y96.683 E0.24395
G1 X157.574 Y96.682 E0.04529
G1 X160.038 Y99.146 E0.17990
G1 X160.038 Y98.268 E0.04533
G1 X158.452 Y96.681 E0.11584
G1 X159.329 Y96.681 E0.04529
G1 X160.312 Y97.663 E0.07173
G1 F8640.000
G1 X159.329 Y96.681 E-0.32082
G1 X158.452 Y96.681 E-0.20258
G1 X159.176 Y97.406 E-0.23660
G1 E-0.04000 F2100.00000
G1 Z0.800 F10800.000
G1 X158.094 Y88.959
G1 Z0.200
G1 E0.80000 F2100.00000
G1 F1200.000
G1 X152.958 Y88.959 E0.25925
G1 X152.958 Y86.224 E0.13810
G1 X158.094 Y86.224 E0.25925
G1 X158.094 Y88.869 E0.13356
G1 X158.701 Y89.567 F10800.000
G1 F1200.000
G1 X152.351 Y89.567 E0.32054
G1 X152.351 Y85.617 E0.19939
G1 X158.701 Y85.617 E0.32054
G1 X158.701 Y89.477 E0.19485
G1 X158.111 Y89.456 F10800.000
G1 F8640.000
G1 X155.410 Y89.523 E-0.76000
G1 E-0.04000 F2100.00000
G1 Z0.800 F10800.000
G1 X154.441 Y88.777
G1 Z0.200
G1 E0.80000 F2100.00000
G1 F1200.000
G1 X153.413 Y87.749 E0.07763
G1 X153.413 Y86.841 E0.04848
G1 X155.076 Y88.504 E0.12557
G1 X155.984 Y88.504 E0.04848
G1 X154.159 Y86.679 E0.13782
G1 X155.067 Y86.679 E0.04848
G1 X156.892 Y88.504 E0.13782
G1 X157.638 Y88.504 E0.03983
G1 X157.638 Y88.342 E0.00865
G1 X155.975 Y86.679 E0.12558
G1 X156.883 Y86.679 E0.04848
G1 X157.912 Y87.707 E0.07764
G1 F8640.000
G1 X156.883 Y86.679 E-0.33579
G1 X155.975 Y86.679 E-0.20968
G1 X156.632 Y87.336 E-0.21453
G1 E-0.04000 F2100.00000
G1 Z0.800 F10800.000
G1 X129.841 Y104.215
G1 Z0.200
G1 E0.80000 F2100.00000
G1 F1200.000
G1 X130.076 Y104.711 E0.02766
G1 X130.260 Y105.227 E0.02766
G1 X130.393 Y105.758 E0.02766
G1 X130.474 Y106.300 E0.02766
G1 X130.501 Y106.847 E0.02766
G1 X130.474 Y107.395 E0.02766
G1 X130.393 Y107.937 E0.02766
G1 X130.260 Y108.468 E0.02766
G1 X130.076 Y108.984 E0.02766
G1 X129.841 Y109.479 E0.02766
G1 X129.560 Y109.949 E0.02766
G1 X129.233 Y110.389 E0.02766
G1 X128.865 Y110.795 E0.02766
G1 X128.459 Y111.163 E0.02766
G1 X128.019 Y111.490 E0.02766
G1 X127.549 Y111.771 E0.02766
G1 X127.054 Y112.006 E0.02766
G1 X126.538 Y112.190 E0.02766
G1 X126.007 Y112.323 E0.02766
G1 X125.465 Y112.404 E0.02766
G1 X124.917 Y112.431 E0.02766
