; generated by PrusaSlicer 2.2.0+win64 on 2020-10-23 at 17:56:04 UTC

; 

; external perimeters extrusion width = 0.68mm
; perimeters extrusion width = 0.68mm
; infill extrusion width = 0.68mm
; solid infill extrusion width = 0.68mm
; top infill extrusion width = 0.60mm
; first layer extrusion width = 0.65mm

M73 P0 R79
M73 Q0 S80
M201 X1000 Y1000 Z200 E5000 ; sets maximum accelerations, mm/sec^2
M203 X200 Y200 Z12 E120 ; sets maximum feedrates, mm/sec
M204 P1250 R1250 T1250 ; sets acceleration (P, T) and retract acceleration (R), mm/sec^2
M205 X8.00 Y8.00 Z0.40 E4.50 ; sets the jerk limits, mm/sec
M205 S0 T0 ; sets the minimum extruding and travel feed rate, mm/sec
M107
M862.3 P "MK3S" ; printer model check
M862.1 P0.6 ; nozzle diameter check
M115 U3.9.1 ; tell printer latest fw version
G90 ; use absolute coordinates
M83 ; extruder relative mode
M104 S215 ; set extruder temp
M140 S60 ; set bed temp
M190 S60 ; wait for bed temp
M109 S215 ; wait for extruder temp
G28 W ; home all without mesh bed level
G80 ; mesh bed leveling
G1 Y-3.0 F1000.0 ; go outside print area
G92 E0.0
G1 X60.0 E9.0 F1000.0 ; intro line
M73 Q0 S80
M73 P0 R79
G1 X100.0 E12.5 F1000.0 ; intro line
G92 E0.0
M221 S95
G21 ; set units to millimeters
G90 ; use absolute coordinates
M83 ; use relative distances for extrusion
M900 K0.04 ; Filament gcode LA 1.5
M900 K18 ; Filament gcode LA 1.0
;BEFORE_LAYER_CHANGE
G92 E0.0
;0.2


G1 E-0.80000 F2100.00000
G1 Z0.600 F10800.000
;AFTER_LAYER_CHANGE
;0.2
G1 X93.648 Y39.055
G1 Z0.200
G1 E0.80000 F2100.00000
M204 S1000
G1 F1200.000
G1 X94.732 Y36.635 E0.13385
G1 X95.953 Y34.277 E0.13406
G1 X98.040 Y30.831 E0.20336
G1 X99.574 Y28.666 E0.13392
G1 X102.151 Y25.521 E0.20525
G1 X103.972 Y23.590 E0.13400
G1 X105.957 Y21.714 E0.13786
G1 X109.073 Y19.159 E0.20338
G1 X111.236 Y17.623 E0.13394
G1 X113.495 Y16.205 E0.13460
G1 X117.041 Y14.309 E0.20301
G1 X119.494 Y13.209 E0.13569
G1 X122.005 Y12.252 E0.13566
G1 X125.818 Y11.095 E0.20113
G1 X128.454 Y10.491 E0.13651
G1 X131.070 Y10.048 E0.13392
G1 X135.080 Y9.651 E0.20344
G1 X137.774 Y9.574 E0.13602
G1 X140.420 Y9.649 E0.13364
G1 X142.998 Y9.866 E0.13062
G1 X145.688 Y10.248 E0.13711
G1 X148.471 Y10.801 E0.14323
G1 X151.011 Y11.452 E0.13239
G1 X153.567 Y12.264 E0.13539
G1 X156.046 Y13.209 E0.13388
G1 X158.462 Y14.291 E0.13365
G1 X160.848 Y15.527 E0.13567
G1 X163.106 Y16.864 E0.13245
G1 X165.464 Y18.440 E0.14316
G1 X167.636 Y20.072 E0.13714
G1 X169.612 Y21.741 E0.13058
G1 X171.539 Y23.561 E0.13380
G1 X173.360 Y25.488 E0.13384
G1 X175.002 Y27.431 E0.12841
G1 X176.661 Y29.637 E0.13932
G1 X178.236 Y31.993 E0.14303
G1 X179.574 Y34.253 E0.13259
G1 X180.790 Y36.598 E0.13337
G1 X181.892 Y39.055 E0.13589
G1 X182.824 Y41.498 E0.13204
G1 X184.022 Y45.445 E0.20817
G1 X184.609 Y48.015 E0.13309
G1 X185.048 Y50.595 E0.13211
G1 X185.348 Y53.264 E0.13558
G1 X185.494 Y55.952 E0.13590
G1 X185.494 Y58.704 E0.13892
G1 X185.348 Y61.396 E0.13606
G1 X185.048 Y64.066 E0.13562
G1 X184.617 Y66.607 E0.13012
G1 X184.009 Y69.270 E0.13786
G1 X158.111 Y165.903 E5.05008
G1 X157.297 Y168.467 E0.13579
G1 X156.338 Y170.978 E0.13569
G1 X155.251 Y173.401 E0.13405
G1 X153.332 Y176.984 E0.20515
G1 X151.913 Y179.239 E0.13450
G1 X149.464 Y182.566 E0.20858
G1 X146.951 Y185.441 E0.19273
G1 X144.073 Y188.259 E0.20337
G1 X140.927 Y190.841 E0.20539
G1 X138.737 Y192.395 E0.13555
G1 X135.305 Y194.475 E0.20261
G1 X131.898 Y196.175 E0.19216
G1 X130.484 Y196.800 E0.07806
G1 X128.040 Y197.732 E0.13204
G1 X124.182 Y198.905 E0.20355
G1 X121.507 Y199.516 E0.13852
G1 X117.462 Y200.133 E0.20656
G1 X113.609 Y200.393 E0.19494
G1 X109.616 Y200.353 E0.20156
G1 X105.535 Y199.953 E0.20700
G1 X102.954 Y199.516 E0.13213
G1 X98.951 Y198.537 E0.20801
G1 X96.433 Y197.736 E0.13341
G1 X93.954 Y196.791 E0.13388
G1 X90.233 Y195.052 E0.20735
G1 X87.957 Y193.796 E0.13123
G1 X85.697 Y192.377 E0.13470
G1 X82.333 Y189.903 E0.21079
G1 X80.388 Y188.259 E0.12857
G1 X78.461 Y186.439 E0.13380
G1 X76.640 Y184.512 E0.13384
G1 X74.996 Y182.565 E0.12861
G1 X72.525 Y179.206 E0.21051
G1 X71.105 Y176.944 E0.13480
G1 X69.847 Y174.666 E0.13135
G1 X68.108 Y170.945 E0.20734
G1 X66.707 Y167.084 E0.20735
G1 X65.985 Y164.586 E0.13123
G1 X65.391 Y161.985 E0.13470
G1 X64.761 Y157.857 E0.21079
G1 X64.548 Y155.319 E0.12857
G1 X64.473 Y152.669 E0.13380
G1 X64.548 Y150.019 E0.13384
G1 X64.761 Y147.484 E0.12841
G1 X65.383 Y143.393 E0.20890
G1 X65.991 Y140.730 E0.13786
G1 X91.887 Y44.105 E5.04968
G1 X92.703 Y41.533 E0.13619
G1 X93.616 Y39.139 E0.12934
G1 F8640.000
G1 X94.732 Y36.635 E-0.63300
G1 X94.984 Y36.147 E-0.12700
G1 E-0.04000 F2100.00000
G1 Z0.800 F10800.000
G1 X101.616 Y42.355
G1 Z0.200
G1 E0.80000 F2100.00000
G1 F1200.000
G1 X102.395 Y40.600 E0.09696
G1 X103.258 Y38.884 E0.09696
G1 X104.205 Y37.213 E0.09696
G1 X105.232 Y35.590 E0.09696
G1 X106.338 Y34.020 E0.09696
G1 X107.520 Y32.505 E0.09696
G1 X108.775 Y31.051 E0.09696
G1 X110.099 Y29.660 E0.09696
G1 X111.490 Y28.336 E0.09696
G1 X112.944 Y27.081 E0.09696
G1 X114.459 Y25.899 E0.09696
G1 X116.029 Y24.793 E0.09696
G1 X117.652 Y23.766 E0.09696
G1 X119.323 Y22.819 E0.09696
G1 X121.039 Y21.955 E0.09696
G1 X122.794 Y21.177 E0.09696
G1 X124.586 Y20.486 E0.09696
G1 X126.410 Y19.883 E0.09696
G1 X128.261 Y19.371 E0.09696
G1 X130.135 Y18.950 E0.09696
G1 X132.028 Y18.622 E0.09696
G1 X133.934 Y18.387 E0.09696
G1 X135.850 Y18.246 E0.09696
G1 X137.639 Y18.202 E0.09036
G1 X139.688 Y18.245 E0.10347
G1 X141.605 Y18.387 E0.09703
G1 X143.512 Y18.622 E0.09696
G1 X145.404 Y18.950 E0.09696
G1 X147.278 Y19.371 E0.09696
G1 X149.129 Y19.883 E0.09696
G1 X150.953 Y20.486 E0.09696
G1 X152.745 Y21.177 E0.09696
G1 X154.501 Y21.955 E0.09696
G1 X156.217 Y22.819 E0.09696
G1 X157.888 Y23.766 E0.09696
G1 X159.511 Y24.793 E0.09696
G1 X161.081 Y25.899 E0.09696
G1 X162.595 Y27.081 E0.09696
G1 X164.050 Y28.336 E0.09696
G1 X165.441 Y29.660 E0.09696
G1 X166.765 Y31.051 E0.09696
G1 X168.020 Y32.505 E0.09696
G1 X169.201 Y34.020 E0.09696
G1 X170.307 Y35.590 E0.09696
G1 X171.335 Y37.213 E0.09696
G1 X172.282 Y38.884 E0.09696
G1 X173.145 Y40.600 E0.09696
G1 X173.923 Y42.355 E0.09696
G1 X174.615 Y44.147 E0.09696
G1 X175.217 Y45.971 E0.09696
G1 X175.729 Y47.822 E0.09696
G1 X176.150 Y49.696 E0.09696
G1 X176.479 Y51.589 E0.09696
G1 X176.714 Y53.495 E0.09696
G1 X176.855 Y55.411 E0.09696
G1 X176.902 Y57.331 E0.09696
G1 X176.855 Y59.251 E0.09696
G1 X176.714 Y61.166 E0.09696
G1 X176.479 Y63.073 E0.09696
G1 X176.150 Y64.965 E0.09696
G1 X175.729 Y66.839 E0.09696
G1 X175.217 Y68.690 E0.09696
G1 X174.615 Y70.514 E0.09696
G1 X173.923 Y72.306 E0.09696
G1 X173.145 Y74.062 E0.09696
G1 X172.282 Y75.778 E0.09696
G1 X171.335 Y77.449 E0.09696
G1 X170.307 Y79.072 E0.09696
G1 X169.201 Y80.642 E0.09696
G1 X168.020 Y82.156 E0.09696
G1 X166.765 Y83.611 E0.09696
G1 X165.441 Y85.002 E0.09696
G1 X164.050 Y86.326 E0.09696
G1 X162.595 Y87.581 E0.09696
G1 X161.081 Y88.762 E0.09696
G1 X159.511 Y89.868 E0.09696
G1 X157.888 Y90.896 E0.09696
G1 X156.217 Y91.842 E0.09696
G1 X154.501 Y92.706 E0.09696
G1 X152.745 Y93.484 E0.09696
G1 X150.953 Y94.176 E0.09696
G1 X149.129 Y94.778 E0.09696
G1 X147.278 Y95.290 E0.09696
G1 X145.404 Y95.711 E0.09696
G1 X143.512 Y96.040 E0.09696
G1 X141.605 Y96.275 E0.09696
G1 X139.690 Y96.416 E0.09696
G1 X137.770 Y96.463 E0.09696
G1 X135.850 Y96.416 E0.09696
G1 X133.934 Y96.275 E0.09696
G1 X132.028 Y96.040 E0.09696
G1 X130.135 Y95.711 E0.09696
G1 X128.261 Y95.290 E0.09696
G1 X126.410 Y94.778 E0.09696
G1 X124.586 Y94.176 E0.09696
G1 X122.794 Y93.484 E0.09696
G1 X121.039 Y92.706 E0.09696
G1 X119.323 Y91.842 E0.09696
G1 X117.652 Y90.896 E0.09696
G1 X116.029 Y89.868 E0.09696
G1 X114.459 Y88.762 E0.09696
G1 X112.944 Y87.581 E0.09696
G1 X111.490 Y86.326 E0.09696
G1 X110.099 Y85.002 E0.09696
G1 X108.775 Y83.611 E0.09696
G1 X107.520 Y82.156 E0.09696
G1 X106.338 Y80.642 E0.09696
G1 X105.232 Y79.072 E0.09696
G1 X104.205 Y77.449 E0.09696
G1 X103.258 Y75.778 E0.09696
G1 X102.395 Y74.062 E0.09696
G1 X101.616 Y72.306 E0.09696
G1 X100.925 Y70.514 E0.09696
G1 X100.322 Y68.690 E0.09696
G1 X99.810 Y66.839 E0.09696
G1 X99.389 Y64.965 E0.09696
G1 X99.061 Y63.073 E0.09696
G1 X98.826 Y61.166 E0.09696
G1 X98.685 Y59.251 E0.09696
G1 X98.637 Y57.331 E0.09696
G1 X98.685 Y55.411 E0.09696
G1 X98.826 Y53.495 E0.09696
G1 X99.061 Y51.589 E0.09696
G1 X99.389 Y49.696 E0.09696
G1 X99.810 Y47.822 E0.09696
G1 X100.322 Y45.971 E0.09696
G1 X100.925 Y44.147 E0.09696
G1 X101.584 Y42.439 E0.09241
G1 X102.150 Y42.658 F10800.000
G1 F1200.000
G1 X102.943 Y40.859 E0.09924
G1 X103.794 Y39.170 E0.09545
G1 X104.726 Y37.525 E0.09545
G1 X105.737 Y35.927 E0.09545
G1 X106.826 Y34.381 E0.09545
G1 X107.989 Y32.891 E0.09545
G1 X109.225 Y31.459 E0.09545
G1 X110.528 Y30.089 E0.09545
G1 X111.898 Y28.786 E0.09545
G1 X113.330 Y27.550 E0.09545
G1 X114.820 Y26.387 E0.09545
G1 X116.366 Y25.298 E0.09545
G1 X117.964 Y24.287 E0.09545
G1 X119.609 Y23.355 E0.09545
G1 X121.298 Y22.504 E0.09545
G1 X123.027 Y21.738 E0.09545
G1 X124.791 Y21.058 E0.09545
G1 X126.587 Y20.465 E0.09545
G1 X128.409 Y19.960 E0.09545
G1 X130.254 Y19.546 E0.09545
G1 X132.117 Y19.223 E0.09545
G1 X133.994 Y18.991 E0.09545
G1 X135.879 Y18.852 E0.09545
G1 X137.640 Y18.809 E0.08890
G1 X139.660 Y18.852 E0.10197
G1 X141.546 Y18.991 E0.09548
G1 X143.423 Y19.223 E0.09545
G1 X145.286 Y19.546 E0.09545
G1 X147.131 Y19.960 E0.09545
G1 X148.953 Y20.465 E0.09545
G1 X150.749 Y21.058 E0.09545
G1 X152.513 Y21.738 E0.09545
G1 X154.241 Y22.504 E0.09545
G1 X155.930 Y23.355 E0.09545
G1 X157.576 Y24.287 E0.09545
G1 X159.173 Y25.298 E0.09545
G1 X160.719 Y26.387 E0.09545
G1 X162.210 Y27.550 E0.09545
G1 X163.642 Y28.786 E0.09545
G1 X165.011 Y30.089 E0.09545
G1 X166.315 Y31.459 E0.09545
G1 X167.550 Y32.891 E0.09545
G1 X168.714 Y34.381 E0.09545
G1 X169.802 Y35.927 E0.09545
G1 X170.814 Y37.525 E0.09545
G1 X171.746 Y39.170 E0.09545
G1 X172.596 Y40.859 E0.09545
G1 X173.362 Y42.588 E0.09545
G1 X174.043 Y44.352 E0.09545
G1 X174.636 Y46.148 E0.09545
G1 X175.140 Y47.970 E0.09545
G1 X175.555 Y49.815 E0.09545
G1 X175.878 Y51.678 E0.09545
G1 X176.109 Y53.555 E0.09545
G1 X176.249 Y55.440 E0.09545
G1 X176.295 Y57.331 E0.09545
G1 X176.249 Y59.221 E0.09545
G1 X176.109 Y61.107 E0.09545
G1 X175.878 Y62.984 E0.09545
G1 X175.555 Y64.847 E0.09545
G1 X175.140 Y66.692 E0.09545
G1 X174.636 Y68.514 E0.09545
G1 X174.043 Y70.310 E0.09545
G1 X173.362 Y72.074 E0.09545
G1 X172.596 Y73.802 E0.09545
G1 X171.746 Y75.491 E0.09545
G1 X170.814 Y77.137 E0.09545
G1 X169.802 Y78.734 E0.09545
G1 X168.714 Y80.280 E0.09545
G1 X167.550 Y81.771 E0.09545
G1 X166.315 Y83.203 E0.09545
G1 X165.011 Y84.572 E0.09545
G1 X163.642 Y85.876 E0.09545
G1 X162.210 Y87.111 E0.09545
G1 X160.719 Y88.274 E0.09545
G1 X159.173 Y89.363 E0.09545
G1 X157.576 Y90.375 E0.09545
G1 X155.930 Y91.307 E0.09545
G1 X154.241 Y92.157 E0.09545
G1 X152.513 Y92.923 E0.09545
G1 X150.749 Y93.604 E0.09545
G1 X148.953 Y94.197 E0.09545
G1 X147.131 Y94.701 E0.09545
G1 X145.286 Y95.116 E0.09545
G1 X143.423 Y95.439 E0.09545
G1 X141.546 Y95.670 E0.09545
G1 X139.660 Y95.810 E0.09545
G1 X137.770 Y95.856 E0.09545
G1 X135.879 Y95.810 E0.09545
G1 X133.994 Y95.670 E0.09545
G1 X132.117 Y95.439 E0.09545
G1 X130.254 Y95.116 E0.09545
G1 X128.409 Y94.701 E0.09545
G1 X126.587 Y94.197 E0.09545
G1 X124.791 Y93.604 E0.09545
G1 X123.027 Y92.923 E0.09545
G1 X121.298 Y92.157 E0.09545
G1 X119.609 Y91.307 E0.09545
G1 X117.964 Y90.375 E0.09545
G1 X116.366 Y89.363 E0.09545
G1 X114.820 Y88.274 E0.09545
G1 X113.330 Y87.111 E0.09545
G1 X111.898 Y85.876 E0.09545
G1 X110.528 Y84.572 E0.09545
G1 X109.225 Y83.203 E0.09545
G1 X107.989 Y81.771 E0.09545
G1 X106.826 Y80.280 E0.09545
G1 X105.737 Y78.734 E0.09545
G1 X104.726 Y77.137 E0.09545
G1 X103.794 Y75.491 E0.09545
G1 X102.943 Y73.802 E0.09545
G1 X102.177 Y72.074 E0.09545
G1 X101.497 Y70.310 E0.09545
G1 X100.904 Y68.514 E0.09545
G1 X100.399 Y66.692 E0.09545
G1 X99.985 Y64.847 E0.09545
G1 X99.662 Y62.984 E0.09545
G1 X99.430 Y61.107 E0.09545
G1 X99.291 Y59.221 E0.09545
G1 X99.245 Y57.331 E0.09545
G1 X99.291 Y55.440 E0.09545
G1 X99.430 Y53.555 E0.09545
G1 X99.662 Y51.678 E0.09545
G1 X99.985 Y49.815 E0.09545
G1 X100.399 Y47.970 E0.09545
G1 X100.904 Y46.148 E0.09545
G1 X101.497 Y44.352 E0.09545
G1 X102.118 Y42.742 E0.08712
G1 X101.784 Y42.182 F10800.000
G1 F8640.000
G1 X102.943 Y40.859 E-0.47470
G1 X103.499 Y39.755 E-0.28530
G1 E-0.04000 F2100.00000
G1 Z0.800 F10800.000
G1 X97.647 Y41.020
G1 Z0.200
G1 E0.80000 F2100.00000
G1 F1200.000
G1 X97.750 Y40.754 E0.01439
G1 X98.626 Y38.779 E0.10909
G1 X99.535 Y36.973 E0.10206
G1 X100.597 Y35.092 E0.10900
G1 X101.753 Y33.265 E0.10916
G1 X102.995 Y31.502 E0.10887
G1 X104.247 Y29.898 E0.10270
G1 X105.651 Y28.266 E0.10864
G1 X107.140 Y26.701 E0.10907
G1 X108.705 Y25.212 E0.10907
G1 X110.337 Y23.808 E0.10864
G1 X111.941 Y22.556 E0.10270
G1 X113.704 Y21.314 E0.10887
G1 X115.531 Y20.158 E0.10916
G1 X117.412 Y19.096 E0.10900
G1 X119.218 Y18.187 E0.10206
G1 X121.193 Y17.311 E0.10909
G1 X123.210 Y16.534 E0.10909
G1 X125.129 Y15.900 E0.10206
G1 X127.210 Y15.320 E0.10900
G1 X129.319 Y14.846 E0.10916
G1 X131.444 Y14.478 E0.10884
G1 X133.593 Y14.216 E0.10928
G1 X135.609 Y14.067 E0.10206
G1 X137.770 Y14.013 E0.10912
G1 X139.930 Y14.067 E0.10906
G1 X142.076 Y14.229 E0.10864
G1 X144.095 Y14.478 E0.10270
G1 X146.220 Y14.846 E0.10887
G1 X148.330 Y15.320 E0.10916
G1 X150.410 Y15.900 E0.10900
G1 X152.330 Y16.534 E0.10206
G1 X154.347 Y17.311 E0.10909
G1 X156.322 Y18.187 E0.10909
G1 X158.128 Y19.096 E0.10206
G1 X160.008 Y20.158 E0.10900
G1 X161.836 Y21.314 E0.10916
G1 X163.599 Y22.556 E0.10887
G1 X165.203 Y23.808 E0.10270
G1 X166.834 Y25.212 E0.10864
G1 X168.400 Y26.701 E0.10907
G1 X169.889 Y28.266 E0.10907
G1 X171.293 Y29.898 E0.10864
G1 X172.544 Y31.502 E0.10270
G1 X173.787 Y33.265 E0.10887
G1 X174.943 Y35.092 E0.10916
G1 X176.004 Y36.973 E0.10900
G1 X176.913 Y38.779 E0.10206
G1 X177.790 Y40.754 E0.10909
G1 X178.567 Y42.770 E0.10909
G1 X179.201 Y44.690 E0.10206
G1 X179.780 Y46.771 E0.10900
G1 X180.255 Y48.880 E0.10916
G1 X180.623 Y51.005 E0.10887
G1 X180.872 Y53.025 E0.10270
G1 X181.033 Y55.171 E0.10864
G1 X181.087 Y57.331 E0.10907
G1 X181.033 Y59.491 E0.10907
G1 X180.872 Y61.637 E0.10864
G1 X180.623 Y63.656 E0.10270
G1 X180.255 Y65.781 E0.10887
G1 X179.780 Y67.891 E0.10916
M73 Q1 S79
G1 X179.201 Y69.971 E0.10900
M73 P1 R78
G1 X178.567 Y71.891 E0.10206
G1 X177.790 Y73.908 E0.10909
G1 X176.913 Y75.883 E0.10909
G1 X176.004 Y77.689 E0.10206
G1 X174.943 Y79.569 E0.10900
G1 X173.787 Y81.397 E0.10916
G1 X172.544 Y83.160 E0.10887
G1 X171.293 Y84.764 E0.10270
G1 X169.889 Y86.395 E0.10864
G1 X168.400 Y87.961 E0.10907
G1 X166.834 Y89.450 E0.10907
G1 X165.203 Y90.853 E0.10864
G1 X163.599 Y92.105 E0.10270
G1 X161.836 Y93.348 E0.10887
G1 X160.008 Y94.504 E0.10916
G1 X158.128 Y95.565 E0.10900
G1 X156.322 Y96.474 E0.10206
G1 X154.347 Y97.351 E0.10909
G1 X152.330 Y98.128 E0.10909
G1 X150.410 Y98.762 E0.10206
G1 X148.330 Y99.341 E0.10900
G1 X146.220 Y99.816 E0.10916
G1 X144.095 Y100.184 E0.10887
G1 X142.076 Y100.433 E0.10270
G1 X139.930 Y100.594 E0.10864
G1 X137.770 Y100.648 E0.10907
G1 X135.610 Y100.594 E0.10907
G1 X133.464 Y100.433 E0.10864
G1 X131.444 Y100.184 E0.10270
G1 X129.319 Y99.816 E0.10887
G1 X127.210 Y99.341 E0.10916
G1 X125.129 Y98.762 E0.10900
G1 X123.210 Y98.128 E0.10206
G1 X121.193 Y97.351 E0.10909
G1 X119.218 Y96.474 E0.10909
G1 X117.412 Y95.565 E0.10206
G1 X115.531 Y94.504 E0.10900
G1 X113.704 Y93.348 E0.10916
G1 X111.941 Y92.105 E0.10887
G1 X110.337 Y90.853 E0.10270
G1 X108.705 Y89.450 E0.10864
G1 X107.140 Y87.961 E0.10907
G1 X105.651 Y86.395 E0.10907
G1 X104.247 Y84.764 E0.10864
G1 X102.995 Y83.160 E0.10270
G1 X101.753 Y81.397 E0.10887
G1 X100.597 Y79.569 E0.10916
G1 X99.535 Y77.689 E0.10900
G1 X98.626 Y75.883 E0.10206
G1 X97.750 Y73.908 E0.10909
G1 X96.973 Y71.891 E0.10909
G1 X96.339 Y69.971 E0.10206
G1 X95.759 Y67.891 E0.10900
G1 X95.285 Y65.781 E0.10916
G1 X94.917 Y63.656 E0.10887
G1 X94.668 Y61.637 E0.10270
G1 X94.506 Y59.491 E0.10864
G1 X94.452 Y57.331 E0.10907
G1 X94.506 Y55.171 E0.10907
G1 X94.668 Y53.025 E0.10864
G1 X94.917 Y51.005 E0.10270
G1 X95.285 Y48.880 E0.10887
G1 X95.759 Y46.771 E0.10916
