; generated by PrusaSlicer 2.2.0+win64 on 2020-10-23 at 17:58:46 UTC

; 

; external perimeters extrusion width = 0.68mm
; perimeters extrusion width = 0.68mm
; infill extrusion width = 0.68mm
; solid infill extrusion width = 0.68mm
; top infill extrusion width = 0.60mm
; first layer extrusion width = 0.65mm

M73 P0 R64
M73 Q0 S65
M201 X1000 Y1000 Z200 E5000 ; sets maximum accelerations, mm/sec^2
M203 X200 Y200 Z12 E120 ; sets maximum feedrates, mm/sec
M204 P1250 R1250 T1250 ; sets acceleration (P, T) and retract acceleration (R), mm/sec^2
M205 X8.00 Y8.00 Z0.40 E4.50 ; sets the jerk limits, mm/sec
M205 S0 T0 ; sets the minimum extruding and travel feed rate, mm/sec
M107
M862.3 P "MK3S" ; printer model check
M862.1 P0.6 ; nozzle diameter check
M115 U3.9.1 ; tell printer latest fw version
G90 ; use absolute coordinates
M83 ; extruder relative mode
M104 S215 ; set extruder temp
M140 S60 ; set bed temp
M190 S60 ; wait for bed temp
M109 S215 ; wait for extruder temp
G28 W ; home all without mesh bed level
G80 ; mesh bed leveling
G1 Y-3.0 F1000.0 ; go outside print area
G92 E0.0
G1 X60.0 E9.0 F1000.0 ; intro line
M73 Q0 S65
M73 P0 R64
G1 X100.0 E12.5 F1000.0 ; intro line
G92 E0.0
M221 S95
G21 ; set units to millimeters
G90 ; use absolute coordinates
M83 ; use relative distances for extrusion
M900 K0.04 ; Filament gcode LA 1.5
M900 K18 ; Filament gcode LA 1.0
;BEFORE_LAYER_CHANGE
G92 E0.0
;0.2


G1 E-0.80000 F2100.00000
G1 Z0.600 F10800.000
;AFTER_LAYER_CHANGE
;0.2
G1 X95.784 Y44.851
G1 Z0.200
G1 E0.80000 F2100.00000
M204 S1000
G1 F1200.000
G1 X96.728 Y42.971 E0.10621
G1 X97.818 Y41.046 E0.11165
G1 X100.078 Y37.664 E0.20532
G1 X101.405 Y35.960 E0.10903
G1 X102.818 Y34.326 E0.10905
G1 X105.691 Y31.453 E0.20511
G1 X107.325 Y30.040 E0.10903
G1 X109.029 Y28.713 E0.10905
G1 X110.691 Y27.543 E0.10257
G1 X112.462 Y26.422 E0.10581
G1 X114.343 Y25.359 E0.10905
G1 X116.158 Y24.446 E0.10257
G1 X118.071 Y23.598 E0.10561
G1 X120.091 Y22.821 E0.10925
G1 X123.979 Y21.642 E0.20511
G1 X126.086 Y21.166 E0.10903
G1 X128.211 Y20.800 E0.10883
G1 X132.258 Y20.401 E0.20532
G1 X134.422 Y20.346 E0.10923
G1 X136.513 Y20.397 E0.10561
G1 X138.608 Y20.552 E0.10601
G1 X140.688 Y20.809 E0.10581
G1 X142.812 Y21.180 E0.10885
G1 X144.857 Y21.642 E0.10581
G1 X148.745 Y22.821 E0.20511
G1 X150.757 Y23.595 E0.10883
G1 X152.674 Y24.444 E0.10581
G1 X154.550 Y25.389 E0.10601
G1 X156.374 Y26.422 E0.10581
G1 X158.148 Y27.545 E0.10601
G1 X159.909 Y28.789 E0.10885
G1 X161.514 Y30.042 E0.10278
G1 X163.145 Y31.453 E0.10885
G1 X166.018 Y34.326 E0.20511
G1 X167.390 Y35.911 E0.10581
G1 X168.718 Y37.609 E0.10883
G1 X169.925 Y39.323 E0.10581
G1 X171.049 Y41.097 E0.10601
G1 X172.082 Y42.921 E0.10581
G1 X173.025 Y44.793 E0.10581
G1 X173.876 Y46.713 E0.10601
G1 X174.630 Y48.669 E0.10581
G1 X175.303 Y50.713 E0.10863
G1 X175.846 Y52.680 E0.10299
G1 X176.316 Y54.784 E0.10885
G1 X176.912 Y58.803 E0.20510
G1 X177.070 Y60.893 E0.10581
G1 X177.125 Y63.049 E0.10883
G1 X177.074 Y65.148 E0.10601
G1 X176.919 Y67.239 E0.10581
G1 X176.663 Y69.319 E0.10581
G1 X176.292 Y71.443 E0.10883
G1 X157.016 Y157.297 E4.44169
G1 X156.431 Y159.405 E0.11046
G1 X155.062 Y163.231 E0.20511
G1 X154.189 Y165.207 E0.10903
G1 X153.220 Y167.128 E0.10863
G1 X151.127 Y170.620 E0.20552
G1 X149.883 Y172.391 E0.10923
G1 X148.595 Y174.040 E0.10561
G1 X147.266 Y175.583 E0.10279
G1 X145.735 Y177.190 E0.11207
G1 X142.721 Y179.922 E0.20531
G1 X140.971 Y181.287 E0.11207
G1 X139.309 Y182.457 E0.10257
G1 X137.538 Y183.578 E0.10581
G1 X135.714 Y184.611 E0.10581
G1 X133.899 Y185.526 E0.10259
G1 X131.866 Y186.427 E0.11227
G1 X129.970 Y187.158 E0.10257
G1 X127.980 Y187.815 E0.10581
G1 X125.897 Y188.389 E0.10905
G1 X123.914 Y188.834 E0.10257
G1 X121.849 Y189.192 E0.10581
G1 X119.704 Y189.454 E0.10905
G1 X117.678 Y189.603 E0.10257
G1 X115.582 Y189.654 E0.10581
G1 X113.423 Y189.599 E0.10905
G1 X111.396 Y189.449 E0.10257
G1 X109.316 Y189.192 E0.10581
G1 X107.251 Y188.834 E0.10581
G1 X105.205 Y188.374 E0.10581
G1 X103.185 Y187.815 E0.10581
G1 X101.195 Y187.158 E0.10581
G1 X99.239 Y186.403 E0.10581
G1 X97.323 Y185.554 E0.10581
G1 X95.450 Y184.611 E0.10581
G1 X93.626 Y183.578 E0.10581
G1 X91.855 Y182.457 E0.10581
G1 X90.142 Y181.250 E0.10581
G1 X88.489 Y179.960 E0.10581
G1 X86.902 Y178.591 E0.10581
G1 X85.384 Y177.146 E0.10581
G1 X83.938 Y175.628 E0.10581
G1 X82.569 Y174.040 E0.10581
G1 X81.280 Y172.388 E0.10581
G1 X80.073 Y170.674 E0.10581
G1 X78.951 Y168.903 E0.10581
G1 X77.918 Y167.079 E0.10581
G1 X76.975 Y165.207 E0.10581
G1 X76.126 Y163.291 E0.10581
G1 X75.372 Y161.335 E0.10581
G1 X74.714 Y159.344 E0.10581
G1 X74.155 Y157.324 E0.10581
G1 X73.696 Y155.279 E0.10581
G1 X73.337 Y153.214 E0.10581
G1 X73.081 Y151.133 E0.10581
G1 X72.927 Y149.043 E0.10581
G1 X72.875 Y146.947 E0.10581
G1 X72.926 Y144.852 E0.10581
G1 X73.081 Y142.761 E0.10581
G1 X73.337 Y140.681 E0.10581
G1 X73.708 Y138.557 E0.10883
G1 X92.984 Y52.703 E4.44169
G1 X93.550 Y50.656 E0.10722
G1 X94.228 Y48.609 E0.10883
G1 X95.750 Y44.935 E0.20078
G1 F8640.000
G1 X96.728 Y42.971 E-0.50657
G1 X97.269 Y42.016 E-0.25343
G1 E-0.04000 F2100.00000
G1 Z0.800 F10800.000
G1 X107.945 Y108.553
G1 Z0.200
G1 E0.80000 F2100.00000
G1 F1200.000
G1 X109.838 Y108.224 E0.09699
G1 X111.745 Y107.989 E0.09699
G1 X113.661 Y107.848 E0.09699
G1 X115.347 Y107.807 E0.08512
G1 X117.502 Y107.848 E0.10880
G1 X119.419 Y107.989 E0.09703
G1 X121.326 Y108.224 E0.09699
G1 X123.219 Y108.553 E0.09699
G1 X125.094 Y108.974 E0.09699
G1 X126.946 Y109.486 E0.09699
G1 X128.770 Y110.089 E0.09699
G1 X130.563 Y110.781 E0.09699
G1 X132.319 Y111.559 E0.09699
G1 X134.036 Y112.423 E0.09699
G1 X135.707 Y113.370 E0.09699
G1 X137.331 Y114.398 E0.09699
G1 X138.902 Y115.504 E0.09699
G1 X140.416 Y116.687 E0.09699
G1 X141.871 Y117.942 E0.09699
G1 X143.263 Y119.266 E0.09699
G1 X144.588 Y120.658 E0.09699
G1 X145.843 Y122.113 E0.09699
G1 X147.025 Y123.628 E0.09699
G1 X148.131 Y125.199 E0.09699
G1 X149.159 Y126.822 E0.09699
G1 X150.106 Y128.494 E0.09699
G1 X150.970 Y130.210 E0.09699
G1 X151.749 Y131.966 E0.09699
G1 X152.440 Y133.759 E0.09699
G1 X153.043 Y135.584 E0.09699
G1 X153.555 Y137.435 E0.09699
G1 X153.976 Y139.310 E0.09699
G1 X154.305 Y141.203 E0.09699
G1 X154.540 Y143.110 E0.09699
G1 X154.681 Y145.026 E0.09699
G1 X154.729 Y146.947 E0.09699
G1 X154.681 Y148.868 E0.09699
G1 X154.540 Y150.784 E0.09699
G1 X154.305 Y152.691 E0.09699
G1 X153.976 Y154.584 E0.09699
G1 X153.555 Y156.459 E0.09699
G1 X153.043 Y158.311 E0.09699
G1 X152.440 Y160.135 E0.09699
G1 X151.749 Y161.928 E0.09699
G1 X150.970 Y163.684 E0.09699
G1 X150.106 Y165.401 E0.09699
G1 X149.159 Y167.072 E0.09699
G1 X148.131 Y168.696 E0.09699
G1 X147.025 Y170.267 E0.09699
G1 X145.843 Y171.781 E0.09699
G1 X144.588 Y173.236 E0.09699
G1 X143.263 Y174.628 E0.09699
G1 X141.871 Y175.953 E0.09699
G1 X140.416 Y177.208 E0.09699
G1 X138.902 Y178.390 E0.09699
G1 X137.331 Y179.496 E0.09699
G1 X135.707 Y180.524 E0.09699
G1 X134.036 Y181.471 E0.09699
G1 X132.319 Y182.335 E0.09699
G1 X130.563 Y183.114 E0.09699
G1 X128.770 Y183.805 E0.09699
G1 X126.946 Y184.408 E0.09699
G1 X125.094 Y184.920 E0.09699
G1 X123.219 Y185.341 E0.09699
G1 X121.326 Y185.670 E0.09699
G1 X119.419 Y185.905 E0.09699
G1 X117.503 Y186.046 E0.09699
G1 X115.582 Y186.093 E0.09699
G1 X113.661 Y186.046 E0.09699
G1 X111.745 Y185.905 E0.09699
G1 X109.838 Y185.670 E0.09699
G1 X107.945 Y185.341 E0.09699
G1 X106.070 Y184.920 E0.09699
G1 X104.219 Y184.408 E0.09699
G1 X102.394 Y183.805 E0.09699
G1 X100.601 Y183.114 E0.09699
G1 X98.845 Y182.335 E0.09699
G1 X97.129 Y181.471 E0.09699
G1 X95.457 Y180.524 E0.09699
G1 X93.834 Y179.496 E0.09699
G1 X92.263 Y178.390 E0.09699
G1 X90.748 Y177.208 E0.09699
G1 X89.293 Y175.953 E0.09699
G1 X87.901 Y174.628 E0.09699
G1 X86.577 Y173.236 E0.09699
G1 X85.322 Y171.781 E0.09699
G1 X84.139 Y170.267 E0.09699
G1 X83.033 Y168.696 E0.09699
G1 X82.005 Y167.072 E0.09699
G1 X81.058 Y165.401 E0.09699
G1 X80.194 Y163.684 E0.09699
G1 X79.416 Y161.928 E0.09699
G1 X78.724 Y160.135 E0.09699
G1 X78.121 Y158.311 E0.09699
G1 X77.609 Y156.459 E0.09699
G1 X77.188 Y154.584 E0.09699
G1 X76.859 Y152.691 E0.09699
G1 X76.624 Y150.784 E0.09699
G1 X76.483 Y148.868 E0.09699
G1 X76.436 Y146.947 E0.09699
G1 X76.483 Y145.026 E0.09699
G1 X76.624 Y143.110 E0.09699
G1 X76.859 Y141.203 E0.09699
G1 X77.188 Y139.310 E0.09699
G1 X77.609 Y137.435 E0.09699
G1 X78.121 Y135.584 E0.09699
G1 X78.724 Y133.759 E0.09699
G1 X79.416 Y131.966 E0.09699
G1 X80.194 Y130.210 E0.09699
G1 X81.058 Y128.494 E0.09699
G1 X82.005 Y126.822 E0.09699
G1 X83.033 Y125.199 E0.09699
G1 X84.139 Y123.628 E0.09699
G1 X85.322 Y122.113 E0.09699
G1 X86.577 Y120.658 E0.09699
G1 X87.901 Y119.266 E0.09699
G1 X89.293 Y117.942 E0.09699
G1 X90.748 Y116.687 E0.09699
G1 X92.263 Y115.504 E0.09699
G1 X93.834 Y114.398 E0.09699
G1 X95.457 Y113.370 E0.09699
G1 X97.129 Y112.423 E0.09699
G1 X98.845 Y111.559 E0.09699
G1 X100.601 Y110.781 E0.09699
G1 X102.394 Y110.089 E0.09699
G1 X104.219 Y109.486 E0.09699
G1 X106.070 Y108.974 E0.09699
G1 X107.857 Y108.573 E0.09245
G1 X108.138 Y107.985 F10800.000
G1 X107.724 Y107.980
G1 F1200.000
G1 X109.749 Y107.624 E0.10378
G1 X111.686 Y107.385 E0.09849
G1 X113.632 Y107.241 E0.09849
G1 X115.582 Y107.194 E0.09850
G1 X117.533 Y107.241 E0.09849
G1 X119.479 Y107.385 E0.09849
G1 X121.415 Y107.624 E0.09849
G1 X123.338 Y107.957 E0.09849
G1 X125.241 Y108.385 E0.09849
G1 X127.122 Y108.905 E0.09849
G1 X128.975 Y109.517 E0.09849
G1 X130.795 Y110.220 E0.09849
G1 X132.579 Y111.010 E0.09849
G1 X134.322 Y111.888 E0.09849
G1 X136.020 Y112.849 E0.09849
G1 X137.668 Y113.893 E0.09849
G1 X139.263 Y115.017 E0.09849
G1 X140.802 Y116.217 E0.09849
G1 X142.279 Y117.492 E0.09849
G1 X143.692 Y118.837 E0.09849
G1 X145.038 Y120.250 E0.09849
G1 X146.312 Y121.728 E0.09849
G1 X147.513 Y123.266 E0.09849
G1 X148.636 Y124.861 E0.09849
G1 X149.680 Y126.510 E0.09849
G1 X150.642 Y128.207 E0.09849
G1 X151.519 Y129.950 E0.09849
G1 X152.310 Y131.734 E0.09849
G1 X153.012 Y133.555 E0.09849
G1 X153.624 Y135.407 E0.09849
G1 X154.144 Y137.288 E0.09849
G1 X154.572 Y139.192 E0.09849
G1 X154.905 Y141.114 E0.09849
G1 X155.144 Y143.051 E0.09849
G1 X155.288 Y144.996 E0.09849
G1 X155.336 Y146.947 E0.09849
G1 X155.288 Y148.898 E0.09849
G1 X155.144 Y150.844 E0.09849
G1 X154.905 Y152.780 E0.09849
G1 X154.572 Y154.703 E0.09849
G1 X154.144 Y156.606 E0.09849
G1 X153.624 Y158.487 E0.09849
G1 X153.012 Y160.340 E0.09849
G1 X152.310 Y162.160 E0.09849
G1 X151.519 Y163.944 E0.09849
G1 X150.642 Y165.687 E0.09849
G1 X149.680 Y167.385 E0.09849
G1 X148.636 Y169.033 E0.09849
G1 X147.513 Y170.628 E0.09849
G1 X146.312 Y172.166 E0.09849
G1 X145.038 Y173.644 E0.09849
G1 X143.692 Y175.057 E0.09849
G1 X142.279 Y176.403 E0.09849
G1 X140.802 Y177.677 E0.09849
G1 X139.263 Y178.877 E0.09849
G1 X137.668 Y180.001 E0.09849
G1 X136.020 Y181.045 E0.09849
G1 X134.322 Y182.007 E0.09849
G1 X132.579 Y182.884 E0.09849
G1 X130.795 Y183.675 E0.09849
G1 X128.975 Y184.377 E0.09849
G1 X127.122 Y184.989 E0.09849
G1 X125.241 Y185.509 E0.09849
G1 X123.338 Y185.937 E0.09849
G1 X121.415 Y186.270 E0.09849
G1 X119.479 Y186.509 E0.09849
G1 X117.533 Y186.653 E0.09849
G1 X115.582 Y186.701 E0.09849
G1 X113.632 Y186.653 E0.09849
G1 X111.686 Y186.509 E0.09849
G1 X109.749 Y186.270 E0.09849
G1 X107.827 Y185.937 E0.09849
G1 X105.923 Y185.509 E0.09849
G1 X104.042 Y184.989 E0.09849
G1 X102.190 Y184.377 E0.09849
G1 X100.369 Y183.675 E0.09849
G1 X98.585 Y182.884 E0.09849
G1 X96.842 Y182.007 E0.09849
G1 X95.145 Y181.045 E0.09849
G1 X93.496 Y180.001 E0.09849
G1 X91.901 Y178.877 E0.09849
G1 X90.363 Y177.677 E0.09849
G1 X88.885 Y176.403 E0.09849
G1 X87.472 Y175.057 E0.09849
G1 X86.127 Y173.644 E0.09849
G1 X84.852 Y172.166 E0.09849
G1 X83.652 Y170.628 E0.09849
G1 X82.528 Y169.033 E0.09849
G1 X81.484 Y167.385 E0.09849
G1 X80.523 Y165.687 E0.09849
G1 X79.645 Y163.944 E0.09849
G1 X78.855 Y162.160 E0.09849
G1 X78.152 Y160.340 E0.09849
G1 X77.540 Y158.487 E0.09849
G1 X77.020 Y156.606 E0.09849
G1 X76.592 Y154.703 E0.09849
G1 X76.259 Y152.780 E0.09849
G1 X76.020 Y150.844 E0.09849
G1 X75.876 Y148.898 E0.09849
G1 X75.829 Y146.947 E0.09849
G1 X75.876 Y144.996 E0.09849
G1 X76.020 Y143.051 E0.09849
G1 X76.259 Y141.114 E0.09849
G1 X76.592 Y139.192 E0.09849
G1 X77.020 Y137.288 E0.09849
G1 X77.540 Y135.407 E0.09849
G1 X78.152 Y133.555 E0.09849
G1 X78.855 Y131.734 E0.09849
G1 X79.645 Y129.950 E0.09849
G1 X80.523 Y128.207 E0.09849
G1 X81.484 Y126.510 E0.09849
G1 X82.528 Y124.861 E0.09849
G1 X83.652 Y123.266 E0.09849
G1 X84.852 Y121.728 E0.09849
G1 X86.127 Y120.250 E0.09849
G1 X87.472 Y118.837 E0.09849
G1 X88.885 Y117.492 E0.09849
G1 X90.363 Y116.217 E0.09849
G1 X91.901 Y115.017 E0.09849
G1 X93.496 Y113.893 E0.09849
G1 X95.145 Y112.849 E0.09849
G1 X96.842 Y111.888 E0.09849
G1 X98.585 Y111.010 E0.09849
G1 X100.369 Y110.220 E0.09849
G1 X102.190 Y109.517 E0.09849
G1 X104.042 Y108.905 E0.09849
G1 X105.923 Y108.385 E0.09849
G1 X107.636 Y108.000 E0.08866
G1 X108.121 Y108.431 F10800.000
G1 F8640.000
G1 X109.749 Y107.624 E-0.49549
G1 X110.886 Y107.484 E-0.26451
G1 E-0.04000 F2100.00000
G1 Z0.800 F10800.000
G1 X114.293 Y96.630
G1 Z0.200
G1 E0.80000 F2100.00000
G1 F1200.000
G1 X112.669 Y95.602 E0.09699
G1 X111.098 Y94.496 E0.09699
G1 X109.584 Y93.313 E0.09699
G1 X108.129 Y92.058 E0.09699
G1 X106.737 Y90.734 E0.09699
G1 X105.412 Y89.342 E0.09699
G1 X104.157 Y87.887 E0.09699
G1 X102.975 Y86.372 E0.09699
G1 X101.869 Y84.801 E0.09699
G1 X100.841 Y83.178 E0.09699
G1 X99.894 Y81.506 E0.09699
G1 X99.030 Y79.790 E0.09699
G1 X98.251 Y78.034 E0.09699
G1 X97.560 Y76.241 E0.09699
G1 X96.957 Y74.416 E0.09699
G1 X96.445 Y72.565 E0.09699
G1 X96.024 Y70.690 E0.09699
G1 X95.695 Y68.797 E0.09699
G1 X95.460 Y66.890 E0.09699
G1 X95.319 Y64.974 E0.09699
G1 X95.271 Y63.053 E0.09699
G1 X95.319 Y61.132 E0.09699
G1 X95.460 Y59.216 E0.09699
G1 X95.695 Y57.309 E0.09699
G1 X96.024 Y55.416 E0.09699
G1 X96.445 Y53.541 E0.09699
G1 X96.957 Y51.689 E0.09699
G1 X97.560 Y49.865 E0.09699
G1 X98.251 Y48.072 E0.09699
G1 X99.030 Y46.316 E0.09699
G1 X99.894 Y44.599 E0.09699
G1 X100.841 Y42.928 E0.09699
G1 X101.869 Y41.304 E0.09699
G1 X102.975 Y39.733 E0.09699
G1 X104.157 Y38.219 E0.09699
G1 X105.412 Y36.764 E0.09699
G1 X106.737 Y35.372 E0.09699
G1 X108.129 Y34.047 E0.09699
G1 X109.584 Y32.792 E0.09699
G1 X111.098 Y31.610 E0.09699
G1 X112.669 Y30.504 E0.09699
G1 X114.293 Y29.476 E0.09699
G1 X115.964 Y28.529 E0.09699
G1 X117.681 Y27.665 E0.09699
G1 X119.437 Y26.886 E0.09699
G1 X121.230 Y26.195 E0.09699
G1 X123.054 Y25.592 E0.09699
G1 X124.906 Y25.080 E0.09699
G1 X126.781 Y24.659 E0.09699
G1 X128.674 Y24.330 E0.09699
G1 X130.581 Y24.095 E0.09699
G1 X132.497 Y23.954 E0.09699
G1 X134.183 Y23.912 E0.08512
G1 X136.338 Y23.954 E0.10880
G1 X138.255 Y24.095 E0.09703
G1 X140.162 Y24.330 E0.09699
G1 X142.055 Y24.659 E0.09699
G1 X143.930 Y25.080 E0.09699
G1 X145.781 Y25.592 E0.09699
G1 X147.606 Y26.195 E0.09699
G1 X149.399 Y26.886 E0.09699
G1 X151.155 Y27.665 E0.09699
G1 X152.871 Y28.529 E0.09699
G1 X154.543 Y29.476 E0.09699
G1 X156.166 Y30.504 E0.09699
G1 X157.737 Y31.610 E0.09699
G1 X159.252 Y32.792 E0.09699
G1 X160.707 Y34.047 E0.09699
G1 X162.099 Y35.372 E0.09699
G1 X163.423 Y36.764 E0.09699
G1 X164.678 Y38.219 E0.09699
G1 X165.861 Y39.733 E0.09699
G1 X166.967 Y41.304 E0.09699
G1 X167.995 Y42.928 E0.09699
G1 X168.942 Y44.599 E0.09699
G1 X169.806 Y46.316 E0.09699
G1 X170.584 Y48.072 E0.09699
G1 X171.276 Y49.865 E0.09699
G1 X171.879 Y51.689 E0.09699
G1 X172.391 Y53.541 E0.09699
G1 X172.812 Y55.416 E0.09699
G1 X173.141 Y57.309 E0.09699
G1 X173.376 Y59.216 E0.09699
G1 X173.517 Y61.132 E0.09699
G1 X173.564 Y63.053 E0.09699
G1 X173.517 Y64.974 E0.09699
M73 Q1 S64
G1 X173.376 Y66.890 E0.09699
G1 X173.141 Y68.797 E0.09699
G1 X172.812 Y70.690 E0.09699
G1 X172.391 Y72.565 E0.09699
M73 P1 R63
G1 X171.879 Y74.416 E0.09699
G1 X171.276 Y76.241 E0.09699
G1 X170.584 Y78.034 E0.09699
G1 X169.806 Y79.790 E0.09699
G1 X168.942 Y81.506 E0.09699
G1 X167.995 Y83.178 E0.09699
G1 X166.967 Y84.801 E0.09699
G1 X165.861 Y86.372 E0.09699
G1 X164.678 Y87.887 E0.09699
G1 X163.423 Y89.342 E0.09699
G1 X162.099 Y90.734 E0.09699
G1 X160.707 Y92.058 E0.09699
